Adwaita++/actions/16/favorite-new.svg

<svg height="16" viewBox="0 0 16 16" width="16" xmlns="http://www.w3.org/2000/svg">
  <path d="m8 .390625-2.1191406 5.4941406-5.8808594.3164063 4.5722656 3.7148437-1.515625 5.6914064 4.9433594-3.201172 4.943359 3.201172-1.515625-5.6914064 4.572266-3.7148437-5.880859-.3164063zm-.5 5.8535156h1v2h2v1h-2v2.0000004h-1v-2.0000004h-2v-1h2z" fill="#474747"/>
</svg>

<?xml version="1.0" encoding="UTF-8" standalone="no"?>
<svg
   xmlns:osb="http://www.openswatchbook.org/uri/2009/osb"
   xmlns:dc="http://purl.org/dc/elements/1.1/"
   xmlns:cc="http://creativecommons.org/ns#"
   xmlns:rdf="http://www.w3.org/1999/02/22-rdf-syntax-ns#"
   xmlns:svg="http://www.w3.org/2000/svg"
   xmlns="http://www.w3.org/2000/svg"
   xmlns:sodipodi="http://sodipodi.sourceforge.net/DTD/sodipodi-0.dtd"
   xmlns:inkscape="http://www.inkscape.org/namespaces/inkscape"
   height="16"
   viewBox="0 0 16 16"
   width="16"
   version="1.1"
   id="svg4"
   sodipodi:docname="favorite-new.svg"
   inkscape:version="0.92.4 (5da689c313, 2019-01-14)">
  <metadata
     id="metadata10">
    <rdf:RDF>
      <cc:Work
         rdf:about="">
        <dc:format>image/svg+xml</dc:format>
        <dc:type
           rdf:resource="http://purl.org/dc/dcmitype/StillImage" />
        <dc:title></dc:title>
      </cc:Work>
    </rdf:RDF>
  </metadata>
  <defs
     id="defs8">
    <linearGradient
       osb:paint="solid"
       id="linearGradient5606">
      <stop
         style="stop-color:#000000;stop-opacity:1;"
         offset="0"
         id="stop5608" />
    </linearGradient>
    <linearGradient
       osb:paint="solid"
       id="linearGradient4526">
      <stop
         style="stop-color:#ffffff;stop-opacity:1;"
         offset="0"
         id="stop4528" />
    </linearGradient>
    <linearGradient
       osb:paint="gradient"
       id="linearGradient3600-4">
      <stop
         style="stop-color:#f4f4f4;stop-opacity:1"
         offset="0"
         id="stop3602-7" />
      <stop
         style="stop-color:#dbdbdb;stop-opacity:1"
         offset="1"
         id="stop3604-6" />
    </linearGradient>
  </defs>
  <sodipodi:namedview
     pagecolor="#ffffff"
     bordercolor="#666666"
     borderopacity="1"
     objecttolerance="10"
     gridtolerance="10"
     guidetolerance="10"
     inkscape:pageopacity="0"
     inkscape:pageshadow="2"
     inkscape:window-width="1920"
     inkscape:window-height="1016"
     id="namedview6"
     showgrid="false"
     inkscape:zoom="14.75"
     inkscape:cx="8"
     inkscape:cy="8"
     inkscape:window-x="0"
     inkscape:window-y="27"
     inkscape:window-maximized="1"
     inkscape:current-layer="svg4" />
  <path
     d="M 8 0.390625 L 5.8808594 5.8847656 L 0 6.2011719 L 4.5722656 9.9160156 L 3.0566406 15.607422 L 8 12.40625 L 12.943359 15.607422 L 11.427734 9.9160156 L 16 6.2011719 L 10.119141 5.8847656 L 8 0.390625 z M 7.5 6.2441406 L 8.5 6.2441406 L 8.5 8.2441406 L 10.5 8.2441406 L 10.5 9.2441406 L 8.5 9.2441406 L 8.5 11.244141 L 7.5 11.244141 L 7.5 9.2441406 L 5.5 9.2441406 L 5.5 8.2441406 L 7.5 8.2441406 L 7.5 6.2441406 z "
     id="path2"
     style="fill:#474747;fill-opacity:1" />
  <g
     id="g856"
     transform="translate(-20.659425,-1.058397)">
    <g
       transform="translate(-333.98643,185.99815)"
       style="display:inline"
       label="status"
       id="layer9" />
    <g
       transform="translate(-92.986234,-181.00185)"
       style="display:inline"
       id="layer2" />
    <g
       transform="translate(-92.986234,-181.00185)"
       style="display:inline"
       id="layer4" />
    <g
       transform="translate(-92.986234,-181.00185)"
       style="display:inline"
       id="g1812" />
    <g
       transform="translate(-92.986234,-181.00185)"
       style="display:inline"
       id="g6217" />
    <g
       transform="translate(-92.986234,-181.00185)"
       style="display:inline"
       id="layer3" />
    <g
       transform="translate(-92.986234,-181.00185)"
       style="display:inline"
       id="g1833" />
    <g
       transform="translate(-92.986234,-181.00185)"
       style="display:inline"
       id="layer1" />
  </g>
</svg>
